X:21008
T:BARONY JIG, The    
B:DMI.0970
Z:Nordberg/Black
R:9/8 % set dance 
N:Normally the two parts of a slip jig would not be
repeated. DMI setting of this tune contains repeats.
%Q:1/4=150
M:9/8
L:1/8
K:Am
B|c2A c2A AGE|c2A ABd e2d|c2A c2A AGE|GED DEG A2B|
c2A c2A AGE|c2A ABd e2d|c2A efd cBA|GED DEG A2||
B|c2d ecA AGE|c2d e2d e2d|c2d ecA AGE|GED DEG A2B|
c2d ecA AGE|c2d e2d e2d|cde ged ecA|GED DEG HA3|]

%%%

